svgs/sharp-regular/square-i.svg

<svg xmlns="http://www.w3.org/2000/svg" viewBox="0 0 448 512"><!--! Font Awesome Pro 6.6.0 by @fontawesome - https://fontawesome.com License - https://fontawesome.com/license (Commercial License) Copyright 2024 Fonticons, Inc. --><path d="M48 80l0 352 352 0 0-352L48 80zM0 32l48 0 352 0 48 0 0 48 0 352 0 48-48 0L48 480 0 480l0-48L0 80 0 32zm152 96l72 0 72 0 24 0 0 48-24 0-48 0 0 160 48 0 24 0 0 48-24 0-48 0-48 0-48 0-24 0 0-48 24 0 48 0 0-160-48 0-24 0 0-48 24 0z"/></svg>

<svg xmlns="http://www.w3.org/2000/svg" viewBox="0 0 448 512"><!--! Font Awesome Pro 6.5.2 by @fontawesome - https://fontawesome.com License - https://fontawesome.com/license (Commercial License) Copyright 2024 Fonticons, Inc. --><path d="M48 80V432H400V80H48zM0 32H48 400h48V80 432v48H400 48 0V432 80 32zm152 96h72 72 24v48H296 248V336h48 24v48H296 248 200 152 128V336h24 48V176H152 128V128h24z"/></svg>
